components/Common/Svg/svgs/cloud.svg

<svg width="40" height="40" viewBox="0 0 40 40" fill="none" xmlns="http://www.w3.org/2000/svg">
<path d="M33.9022 27.1442C32.9995 27.1442 32.2337 27.7426 31.9792 28.5644H29.2242V21.9453H30.6106C30.7049 21.9495 30.7935 21.9515 30.881 21.9515C30.9714 21.9515 31.0631 21.9493 31.161 21.9449C31.1625 21.9448 31.164 21.9447 31.1655 21.9447C34.4372 21.7944 37 19.1046 37 15.8211C37 13.2716 35.4513 11.0231 33.1076 10.1095C32.8345 8.21327 31.9138 6.47065 30.4892 5.16843C28.9596 3.77009 26.9759 3.00001 24.9037 3.00001C22.2997 3.00001 19.8736 4.21382 18.3084 6.27361C17.4549 5.84007 16.5096 5.61306 15.5433 5.61306C12.9155 5.61306 10.6112 7.27856 9.76406 9.72473C9.54986 9.70218 9.33423 9.69078 9.11911 9.69078C5.745 9.69078 3 12.4408 3 15.8212C3 19.2014 5.745 21.9515 9.11909 21.9515C9.221 21.9515 9.32616 21.9487 9.43263 21.9432C9.44916 21.9446 9.46585 21.9453 9.4827 21.9453H10.853V28.5644H8.09803C7.84355 27.7427 7.07774 27.1442 6.17507 27.1442C5.06516 27.1442 4.16216 28.0489 4.16216 29.1608C4.16216 30.2728 5.06516 31.1774 6.17507 31.1774C7.07775 31.1774 7.84355 30.579 8.09803 29.7573H11.4484C11.7772 29.7573 12.0437 29.4902 12.0437 29.1608V21.9453H15.7198V33.0569C14.8996 33.3117 14.3022 34.0789 14.3022 34.9834C14.3022 36.0953 15.2053 37 16.3151 37C17.425 37 18.3281 36.0953 18.3281 34.9834C18.3281 34.079 17.7307 33.3117 16.9105 33.0569V21.9453H23.1666V33.0569C22.3464 33.3117 21.7491 34.0789 21.7491 34.9834C21.7491 36.0953 22.6521 37 23.762 37C24.8719 37 25.7749 36.0953 25.7749 34.9834C25.7749 34.079 25.1775 33.3117 24.3573 33.0569V21.9453H28.0334V29.1608C28.0334 29.4902 28.2999 29.7573 28.6288 29.7573H31.9791C32.2336 30.579 32.9994 31.1774 33.9021 31.1774C35.012 31.1774 35.915 30.2728 35.915 29.1608C35.9151 28.0489 35.0121 27.1442 33.9022 27.1442ZM6.17507 29.9846C5.72173 29.9846 5.35287 29.615 5.35287 29.1608C5.35287 28.7067 5.72173 28.3371 6.17507 28.3371C6.62841 28.3371 6.99727 28.7067 6.99727 29.1608C6.99727 29.615 6.62841 29.9846 6.17507 29.9846ZM16.3152 35.8071C15.8619 35.8071 15.493 35.4376 15.493 34.9834C15.493 34.5292 15.8619 34.1597 16.3152 34.1597C16.7685 34.1597 17.1374 34.5292 17.1374 34.9834C17.1374 35.4376 16.7685 35.8071 16.3152 35.8071ZM23.762 35.8071C23.3087 35.8071 22.9399 35.4376 22.9399 34.9834C22.9399 34.5292 23.3087 34.1597 23.762 34.1597C24.2154 34.1597 24.5842 34.5292 24.5842 34.9834C24.5842 35.4376 24.2154 35.8071 23.762 35.8071ZM9.44417 20.7476C9.33295 20.7549 9.22357 20.7585 9.11907 20.7585C6.40157 20.7585 4.19071 18.5436 4.19071 15.8211C4.19071 13.0986 6.40157 10.8837 9.11907 10.8837C9.4386 10.8837 9.7592 10.9148 10.072 10.9761C10.3832 11.0367 10.6867 10.8436 10.7638 10.536C11.3143 8.33981 13.2797 6.80599 15.5433 6.80599C16.4744 6.80599 17.3811 7.06743 18.1653 7.56214C18.4389 7.73472 18.8005 7.65691 18.979 7.38647C20.2995 5.38673 22.5142 4.19293 24.9037 4.19293C28.5756 4.19293 31.6128 6.94994 31.9685 10.606C31.9916 10.8433 32.1534 11.044 32.3801 11.1165C34.4311 11.772 35.8093 13.6626 35.8093 15.8212C35.8093 18.4646 33.7472 20.6301 31.1143 20.7529C31.1131 20.7529 31.1119 20.753 31.1106 20.753C30.9481 20.7604 30.8131 20.7604 30.6512 20.753C30.6422 20.7526 30.633 20.7524 30.624 20.7524H9.56695C9.52666 20.7466 9.48554 20.745 9.44417 20.7476ZM33.9022 29.9846C33.4488 29.9846 33.08 29.615 33.08 29.1608C33.08 28.7067 33.4488 28.3371 33.9022 28.3371C34.3555 28.3371 34.7244 28.7067 34.7244 29.1608C34.7244 29.615 34.3555 29.9846 33.9022 29.9846Z" fill="#161616"/>
<path fill-rule="evenodd" clip-rule="evenodd" d="M31.1612 21.9449C31.0633 21.9493 30.9716 21.9515 30.8812 21.9515C30.7937 21.9515 30.7051 21.9495 30.6108 21.9453H29.2244V28.5644H31.9794C32.2339 27.7426 32.9997 27.1442 33.9024 27.1442C35.0123 27.1442 35.9153 28.0489 35.9152 29.1608C35.9152 30.2728 35.0122 31.1774 33.9023 31.1774C32.9996 31.1774 32.2338 30.579 31.9793 29.7573H28.629C28.3001 29.7573 28.0336 29.4902 28.0336 29.1608V21.9452H24.3575V33.0568C25.1777 33.3117 25.7751 34.079 25.7751 34.9834C25.7751 36.0953 24.8721 37 23.7622 37C22.6523 37 21.7493 36.0953 21.7493 34.9834C21.7493 34.0789 22.3466 33.3117 23.1668 33.0568V21.9452H16.9107V33.0568C17.7309 33.3117 18.3283 34.079 18.3283 34.9834C18.3283 36.0953 17.4252 37 16.3153 37C15.2055 37 14.3024 36.0953 14.3024 34.9834C14.3024 34.0789 14.8998 33.3117 15.72 33.0568V21.9452H12.0439V29.1608C12.0439 29.4902 11.7774 29.7573 11.4486 29.7573H8.09823C7.84375 30.579 7.07795 31.1774 6.17527 31.1774C5.06536 31.1774 4.16235 30.2728 4.16235 29.1608C4.16235 28.0489 5.06536 27.1442 6.17527 27.1442C7.07793 27.1442 7.84375 27.7427 8.09823 28.5644H10.8532V21.9453H9.4829C9.46604 21.9453 9.44936 21.9446 9.43282 21.9432C9.32636 21.9487 9.2212 21.9515 9.11929 21.9515C5.74519 21.9515 3.0002 19.2014 3.0002 15.8212C3.0002 12.4408 5.74519 9.69078 9.1193 9.69078C9.33443 9.69078 9.55006 9.70218 9.76425 9.72472C10.6114 7.27856 12.9157 5.61306 15.5435 5.61306C16.5098 5.61306 17.4551 5.84007 18.3085 6.2736C19.8738 4.21381 22.2999 3 24.9039 3C26.9761 3 28.9598 3.77009 30.4894 5.16843C31.914 6.47064 32.8347 8.21327 33.1078 10.1095C35.4515 11.0231 37.0002 13.2716 37.0002 15.8211C37.0002 19.1046 34.4373 21.7944 31.1657 21.9447L31.1612 21.9449ZM33.3783 9.89546C33.0657 7.99689 32.1245 6.25667 30.6918 4.947C29.107 3.49812 27.051 2.7 24.9039 2.7C22.2885 2.7 19.8458 3.88205 18.2214 5.89823C17.3854 5.51359 16.4735 5.31306 15.5435 5.31306C12.8666 5.31306 10.5095 6.96082 9.56167 9.40601C9.4144 9.39588 9.26676 9.39078 9.1193 9.39078C5.57899 9.39078 2.7002 12.2757 2.7002 15.8212C2.7002 19.3666 5.57899 22.2515 9.11929 22.2515C9.22064 22.2515 9.3247 22.2489 9.42982 22.2438C9.44772 22.2448 9.46542 22.2453 9.4829 22.2453H10.5532V28.2644H8.30788C7.95765 27.4314 7.13452 26.8442 6.17527 26.8442C4.89915 26.8442 3.86235 27.8837 3.86235 29.1608C3.86235 30.4379 4.89915 31.4774 6.17527 31.4774C7.13453 31.4774 7.95765 30.8902 8.30788 30.0573H11.4486C11.9436 30.0573 12.3439 29.6554 12.3439 29.1608V22.2452H15.42V32.8474C14.5881 33.1984 14.0024 34.0232 14.0024 34.9834C14.0024 36.2605 15.0393 37.3 16.3153 37.3C17.5914 37.3 18.6283 36.2605 18.6283 34.9834C18.6283 34.0232 18.0426 33.1984 17.2107 32.8474V22.2452H22.8668V32.8474C22.035 33.1984 21.4493 34.0232 21.4493 34.9834C21.4493 36.2605 22.4861 37.3 23.7622 37.3C25.0383 37.3 26.0751 36.2605 26.0751 34.9834C26.0751 34.0232 25.4894 33.1984 24.6575 32.8474V22.2452H27.7336V29.1608C27.7336 29.6554 28.1339 30.0573 28.629 30.0573H31.7697C32.1199 30.8902 32.943 31.4774 33.9023 31.4774C35.1784 31.4774 36.2152 30.4379 36.2152 29.1608C36.2153 27.8837 35.1785 26.8442 33.9024 26.8442C32.9431 26.8442 32.12 27.4314 31.7697 28.2644H29.5244V22.2453H30.6043C30.7002 22.2494 30.791 22.2515 30.8812 22.2515C30.9737 22.2515 31.067 22.2493 31.1657 22.245L31.1747 22.2446L31.1767 22.2445L31.1794 22.2444C34.6119 22.0867 37.3002 19.2642 37.3002 15.8211C37.3002 13.207 35.7465 10.8927 33.3783 9.89546ZM9.42519 20.4482C9.47887 20.4448 9.53284 20.4461 9.58647 20.4524H30.6242C30.6343 20.4524 30.6439 20.4526 30.6528 20.4529C30.6569 20.453 30.6608 20.4532 30.6646 20.4533C30.8167 20.4602 30.9426 20.4603 31.0952 20.4534L31.0963 20.4534M31.1036 20.4531C33.5743 20.3363 35.5094 18.304 35.5094 15.8212C35.5094 13.7927 34.2153 12.0179 32.289 11.4022C31.9478 11.2932 31.7047 10.9913 31.6701 10.6351C31.3294 7.13262 28.4213 4.49293 24.9039 4.49293C22.6156 4.49293 20.4947 5.63584 19.2296 7.55177C18.9611 7.95839 18.4172 8.07558 18.0054 7.81587C17.2693 7.35153 16.4182 7.10598 15.5435 7.10598C13.4175 7.10598 11.5721 8.54617 11.055 10.609C10.9392 11.0711 10.4827 11.3617 10.0149 11.2706C9.72111 11.213 9.41945 11.1837 9.11927 11.1837C6.56797 11.1837 4.49091 13.2638 4.49091 15.8211C4.49091 18.3784 6.56797 20.4585 9.11927 20.4585C9.21688 20.4585 9.32004 20.4551 9.42519 20.4482M31.0926 20.4536C31.0923 20.4536 31.0917 20.4537 31.0926 20.4536V20.4536ZM9.56714 20.7524C9.52685 20.7465 9.48573 20.745 9.44437 20.7476C9.33314 20.7549 9.22377 20.7585 9.11927 20.7585C6.40176 20.7585 4.19091 18.5436 4.19091 15.8211C4.19091 13.0986 6.40176 10.8837 9.11927 10.8837C9.43879 10.8837 9.7594 10.9148 10.0722 10.9761C10.3834 11.0367 10.6869 10.8436 10.764 10.536C11.3145 8.33981 13.2799 6.80598 15.5435 6.80598C16.4746 6.80598 17.3813 7.06743 18.1655 7.56213C18.4391 7.73472 18.8007 7.65691 18.9792 7.38647C20.2997 5.38673 22.5144 4.19293 24.9039 4.19293C28.5758 4.19293 31.613 6.94994 31.9687 10.606C31.9918 10.8433 32.1535 11.044 32.3803 11.1165C34.4313 11.772 35.8094 13.6626 35.8094 15.8212C35.8094 18.4646 33.7474 20.6301 31.1145 20.7529L31.1108 20.753C30.9483 20.7604 30.8133 20.7604 30.6514 20.753C30.6424 20.7526 30.6332 20.7524 30.6242 20.7524H9.56714ZM31.1794 22.2444C31.1797 22.2443 31.1792 22.2444 31.1794 22.2444C31.1797 22.2444 31.1806 22.2442 31.1806 22.2442L31.1794 22.2444ZM5.65306 29.1608C5.65306 29.4498 5.88814 29.6845 6.17527 29.6845C6.4624 29.6845 6.69747 29.4498 6.69747 29.1608C6.69747 28.8718 6.4624 28.6371 6.17527 28.6371C5.88814 28.6371 5.65306 28.8718 5.65306 29.1608ZM15.7932 34.9834C15.7932 35.2724 16.0283 35.5071 16.3154 35.5071C16.6025 35.5071 16.8376 35.2724 16.8376 34.9834C16.8376 34.6944 16.6025 34.4597 16.3154 34.4597C16.0283 34.4597 15.7932 34.6944 15.7932 34.9834ZM23.2401 34.9834C23.2401 35.2724 23.4751 35.5071 23.7622 35.5071C24.0494 35.5071 24.2844 35.2724 24.2844 34.9834C24.2844 34.6944 24.0494 34.4597 23.7622 34.4597C23.4751 34.4597 23.2401 34.6944 23.2401 34.9834ZM33.3802 29.1608C33.3802 29.4498 33.6152 29.6845 33.9024 29.6845C34.1895 29.6845 34.4246 29.4498 34.4246 29.1608C34.4246 28.8718 34.1895 28.6371 33.9024 28.6371C33.6152 28.6371 33.3802 28.8718 33.3802 29.1608ZM5.35306 29.1608C5.35306 29.615 5.72193 29.9846 6.17527 29.9846C6.6286 29.9846 6.99747 29.615 6.99747 29.1608C6.99747 28.7067 6.6286 28.3371 6.17527 28.3371C5.72193 28.3371 5.35306 28.7067 5.35306 29.1608ZM15.4932 34.9834C15.4932 35.4376 15.862 35.8071 16.3154 35.8071C16.7687 35.8071 17.1376 35.4376 17.1376 34.9834C17.1376 34.5292 16.7687 34.1597 16.3154 34.1597C15.862 34.1597 15.4932 34.5292 15.4932 34.9834ZM22.9401 34.9834C22.9401 35.4376 23.3089 35.8071 23.7622 35.8071C24.2156 35.8071 24.5844 35.4376 24.5844 34.9834C24.5844 34.5292 24.2156 34.1597 23.7622 34.1597C23.3089 34.1597 22.9401 34.5292 22.9401 34.9834ZM33.0802 29.1608C33.0802 29.615 33.449 29.9846 33.9024 29.9846C34.3557 29.9846 34.7246 29.615 34.7246 29.1608C34.7246 28.7067 34.3557 28.3371 33.9024 28.3371C33.449 28.3371 33.0802 28.7067 33.0802 29.1608Z" fill="#161616"/>
</svg>

<svg width="40" height="40" viewBox="0 0 40 40" fill="none" xmlns="http://www.w3.org/2000/svg"><path d="M33.902 27.144c-.903 0-1.668.599-1.923 1.42h-2.755v-6.619h1.387a6.03 6.03 0 0 0 .555 0A6.114 6.114 0 0 0 37 15.82a6.108 6.108 0 0 0-3.892-5.711 8.288 8.288 0 0 0-2.619-4.942A8.26 8.26 0 0 0 24.904 3a8.266 8.266 0 0 0-6.596 3.274 6.099 6.099 0 0 0-2.765-.66 6.11 6.11 0 0 0-5.779 4.11 6.165 6.165 0 0 0-.645-.033C5.745 9.69 3 12.44 3 15.82s2.745 6.13 6.12 6.13c.101 0 .206-.002.313-.008a.593.593 0 0 0 .05.002h1.37v6.62H8.098a2.017 2.017 0 0 0-1.923-1.42 2.017 2.017 0 0 0 0 4.032c.903 0 1.669-.598 1.923-1.42h3.35a.596.596 0 0 0 .596-.596v-7.216h3.676v11.112A2.017 2.017 0 0 0 16.315 37a2.017 2.017 0 0 0 .596-3.943V21.945h6.256v11.112A2.017 2.017 0 0 0 23.762 37a2.017 2.017 0 0 0 .595-3.943V21.945h3.676v7.216c0 .33.267.596.596.596h3.35a2.017 2.017 0 0 0 1.923 1.42 2.017 2.017 0 0 0 0-4.033Zm-27.727 2.84a.824.824 0 0 1 0-1.647.824.824 0 0 1 0 1.648Zm10.14 5.823a.824.824 0 0 1 0-1.647.824.824 0 0 1 0 1.647Zm7.447 0a.824.824 0 0 1 0-1.647.824.824 0 0 1 0 1.647ZM9.444 20.747a4.938 4.938 0 1 1-.325-9.864c.32 0 .64.032.953.093a.595.595 0 0 0 .692-.44 4.921 4.921 0 0 1 4.78-3.73c.93 0 1.837.261 2.621.756a.595.595 0 0 0 .814-.176 7.085 7.085 0 0 1 5.925-3.193 7.073 7.073 0 0 1 7.064 6.413.596.596 0 0 0 .412.51 4.92 4.92 0 0 1 3.43 4.705 4.924 4.924 0 0 1-4.696 4.932h-.003a4.756 4.756 0 0 1-.487 0H9.567a.598.598 0 0 0-.123-.005Zm24.458 9.238a.824.824 0 0 1 0-1.648.824.824 0 0 1 0 1.648Z" fill="#161616"/><path fill-rule="evenodd" clip-rule="evenodd" d="M31.161 21.945a6.191 6.191 0 0 1-.55 0h-1.387v6.62h2.755a2.017 2.017 0 0 1 1.923-1.42 2.017 2.017 0 0 1 0 4.032 2.017 2.017 0 0 1-1.923-1.42h-3.35a.596.596 0 0 1-.595-.596v-7.216h-3.676v11.112A2.017 2.017 0 0 1 23.763 37a2.017 2.017 0 0 1-.596-3.943V21.945H16.91v11.112A2.017 2.017 0 0 1 16.316 37a2.017 2.017 0 0 1-.596-3.943V21.945h-3.676v7.216c0 .33-.267.596-.595.596h-3.35a2.017 2.017 0 0 1-1.924 1.42 2.017 2.017 0 0 1 0-4.033c.903 0 1.669.599 1.923 1.42h2.755v-6.619h-1.37c-.017 0-.034 0-.05-.002a6.098 6.098 0 0 1-.314.008c-3.374 0-6.119-2.75-6.119-6.13s2.745-6.13 6.12-6.13c.214 0 .43.011.644.034a6.11 6.11 0 0 1 5.78-4.112c.966 0 1.911.227 2.764.66A8.267 8.267 0 0 1 24.904 3a8.26 8.26 0 0 1 5.585 2.168 8.288 8.288 0 0 1 2.619 4.942A6.108 6.108 0 0 1 37 15.82a6.114 6.114 0 0 1-5.834 6.124h-.005Zm2.217-12.05a8.59 8.59 0 0 0-2.686-4.948A8.56 8.56 0 0 0 24.904 2.7a8.565 8.565 0 0 0-6.683 3.198 6.401 6.401 0 0 0-2.678-.585 6.41 6.41 0 0 0-5.981 4.093 6.449 6.449 0 0 0-.443-.015c-3.54 0-6.419 2.885-6.419 6.43 0 3.546 2.879 6.43 6.42 6.43.1 0 .205-.002.31-.007a.952.952 0 0 0 .053.001h1.07v6.02H8.308a2.316 2.316 0 0 0-2.133-1.42 2.317 2.317 0 0 0 0 4.632c.96 0 1.783-.587 2.133-1.42h3.14a.896.896 0 0 0 .896-.896v-6.916h3.076v10.602a2.317 2.317 0 0 0 .895 4.453 2.317 2.317 0 0 0 .896-4.453V22.245h5.656v10.602a2.317 2.317 0 0 0 .895 4.453 2.317 2.317 0 0 0 .895-4.453V22.245h3.077v6.916c0 .494.4.896.895.896h3.14a2.316 2.316 0 0 0 2.133 1.42 2.317 2.317 0 0 0 0-4.633c-.959 0-1.782.587-2.132 1.42h-2.246v-6.019h1.08a6.438 6.438 0 0 0 .562 0h.013A6.414 6.414 0 0 0 37.3 15.82a6.408 6.408 0 0 0-3.922-5.926ZM9.425 20.448a.896.896 0 0 1 .161.004h21.067l.012.001c.152.007.278.007.43 0h.001m.008 0a4.623 4.623 0 0 0 4.405-4.632 4.62 4.62 0 0 0-3.22-4.419.896.896 0 0 1-.619-.767 6.773 6.773 0 0 0-6.766-6.142 6.784 6.784 0 0 0-5.674 3.059.895.895 0 0 1-1.225.264 4.607 4.607 0 0 0-2.461-.71 4.621 4.621 0 0 0-4.489 3.503.895.895 0 0 1-1.04.662 4.638 4.638 0 1 0-.896 9.188c.098 0 .201-.004.306-.01m21.668.005s-.001 0 0 0Zm-21.526.298a.591.591 0 0 0-.123-.004 4.938 4.938 0 1 1-.325-9.864c.32 0 .64.03.953.092a.595.595 0 0 0 .692-.44 4.921 4.921 0 0 1 4.78-3.73c.93 0 1.837.261 2.622.756a.595.595 0 0 0 .813-.176 7.085 7.085 0 0 1 5.925-3.193 7.073 7.073 0 0 1 7.065 6.413.596.596 0 0 0 .411.51 4.92 4.92 0 0 1 3.43 4.705 4.923 4.923 0 0 1-4.696 4.932h-.003a4.756 4.756 0 0 1-.487 0H9.567Zm21.612 1.492h.002-.002ZM5.653 29.161c0 .289.235.523.522.523a.524.524 0 0 0 0-1.047.524.524 0 0 0-.522.524Zm10.14 5.822c0 .29.235.524.522.524a.524.524 0 0 0 0-1.047.524.524 0 0 0-.522.523Zm7.447 0c0 .29.235.524.522.524a.524.524 0 0 0 0-1.047.524.524 0 0 0-.522.523Zm10.14-5.822c0 .289.235.523.522.523a.524.524 0 0 0 0-1.047.524.524 0 0 0-.522.524Zm-28.027 0c0 .454.369.824.822.824a.824.824 0 0 0 0-1.648.824.824 0 0 0-.822.824Zm10.14 5.822c0 .455.369.824.822.824a.824.824 0 0 0 0-1.647.824.824 0 0 0-.822.823Zm7.447 0c0 .455.369.824.822.824a.824.824 0 0 0 0-1.647.824.824 0 0 0-.822.823Zm10.14-5.822c0 .454.369.824.822.824a.824.824 0 0 0 0-1.648.824.824 0 0 0-.822.824Z" fill="#161616"/></svg>
